X: 18271
T: Humours Of Ranelagh, The
R: jig
M: 6/8
K: Gmajor
|:E|DGG BGG|Bdg edB|D2 F AFF|fed cAF|
DGG BG/G/G|B/c/dg e2 d|dd/e/f gdB|1 cAF G2:|2 cAF G||
|:B/c/d|gbg Bdg|Bdg gfg|f/g/af a^ga|fed cAF|
[1 g2 g B/c/dg|bdg gbg|fd/e/f a^ga|fdc A:|
[2 D2 G DAA|B/c/dg e^de|def gdB|cAF G2||

